X: 38889
T: Sunset City
R: polka
M: 2/4
K: Dmajor
|:AB/c/ df|ed f>e|dB BA|B2 dB|
AB/c/ df|ed fg|a>b af|1 ed ef:|2 ed fa||
|:b2 a>b|fd df|b2 a>b|fe ef|
b2 a>b|fd df|ga ef|1 ed df:|2 ed dB||

